src/images/grow-favicon.svg

<svg fill="none" height="147" viewBox="0 0 149 147" width="149" xmlns="http://www.w3.org/2000/svg"><ellipse cx="74.295" cy="73.5" fill="#fff" rx="74.295" ry="73.5"/><g fill="#2f2f2f"><path d="m28.831 58.1077c7.0822 0 10.9982 3.7092 12.248 9.4792h-6.6656c-.5832-2.7201-2.3329-4.3687-5.5824-4.3687-4.4992 0-6.9988 3.2971-6.9988 8.9846 0 5.6876 2.4996 9.0671 6.9988 9.0671 3.5828 0 5.7491-1.9783 5.7491-4.4511v-.4946h-4.2493v-4.6984h11.0815v14.3425h-5.1658l-.4166-3.2971c-.9999 2.2255-4.3327 3.7092-7.4988 3.7092-8.1653 0-13.3311-5.8523-13.3311-14.1776 0-8.3252 5.4158-14.0951 13.831-14.0951z"/><path d="m59.8255 72.0382c-.6904-.0959-1.3859-.1509-2.083-.1649-2.9161 0-5.1658 1.731-5.1658 5.3579v8.5725h-6.4156v-19.5355h6.4156v4.1214c.9999-2.8849 3.1662-4.4511 5.9157-4.4511.4784-.0316.9586.0243 1.4164.1649z"/><path clip-rule="evenodd" d="m61.5762 76.1594c0 6.347 4.3326 10.2211 10.5815 10.2211 6.1657 0 10.4983-3.9565 10.4983-10.3035 0-6.3469-4.2493-10.221-10.4983-10.221-6.2489 0-10.5815 3.9565-10.5815 10.3034zm14.5815-.165c0 3.5444-1.3331 5.6875-3.9993 5.6875-2.6663 0-4.0827-2.0606-4.0827-5.605s1.4164-5.6876 4.0827-5.6876c2.6662 0 3.9993 2.0607 3.9993 5.6051z" fill-rule="evenodd"/></g><path d="m128.981 75.3349c0-.0824 0-.0824-.084-.0824-1.5-1.2365-3.083-2.4729-4.666-3.7917-1.583-1.3189-3.083-2.6377-4.499-3.7917-.093-.2463-.062-.5219.083-.7419l.75-.4945c.701-.2472 1.466-.2472 2.167 0 1.988.9269 3.838 2.1195 5.499 3.5444 1.702 1.5068 3.263 3.162 4.666 4.9457.329.4534.421 1.0343.249 1.5661-.188.6002-.607 1.1034-1.166 1.4013-1.914 1.0839-3.751 2.2956-5.499 3.6268-1.75 1.3188-3.583 2.5552-5.333 3.7917-.166.0824-.416.1648-.583.2472l-.75.2473c-.25 0-.416 0-.5-.0824-.083-.0824-.083-.3297.084-.7418.655-.9572 1.379-1.8663 2.166-2.7202.75-.8242 1.5-1.5661 2.333-2.3904s1.583-1.4837 2.416-2.2255c.833-.7419 1.75-1.4837 2.667-2.308z" fill="#ff4665"/><path d="m101.403 91.1613c.178-.5671.317-1.1454.417-1.731l.5-1.731c.833-2.308 1.916-4.7808 3.082-7.3361 1.167-2.5552 2.417-5.1929 3.75-7.7482 1.333-2.5552 2.749-5.0281 4.249-7.4185s2.916-4.5335 4.333-6.4294c.198-.2672.421-.5156.666-.7418.243-.238.524-.4331.833-.577.22-.1551.481-.2412.75-.2473.175-.0032.337.0928.417.2473.083.1648.166.2473.166.4121v.4946c-.083.1649-.083.3297-.166.4121-.083.0825-.083.2473-.167.4122-1.166 2.2255-2.416 4.6984-3.666 7.2536-1.25 2.5553-2.666 5.193-4.083 7.9131-1.416 2.7201-2.749 5.2754-4.165 7.8307-1.417 2.5552-2.75 4.8632-4 7.0063-.25.4122-.583.8243-.833 1.2364-.258.4191-.566.8065-.917 1.154-.416.4946-.749.7419-.999.577-.417 0-.417-.3297-.167-.9891z" fill="#ff4665"/><path d="m104.818 76.1594-2.416-9.8913h-5.8323l-3.1661 13.1884h-.0833l-3.4994-13.1884h-6.4156l6.1656 19.5354h6.4989l3.3328-12.6939h.0833l2.5001 9.5616z" fill="#2f2f2f"/></svg>

<svg width="149" height="147" viewBox="0 0 149 147" fill="none" xmlns="http://www.w3.org/2000/svg">
<ellipse cx="74.295" cy="73.5" rx="74.295" ry="73.5" fill="white"/>
<path d="M28.831 58.1077C35.9132 58.1077 39.8292 61.8169 41.079 67.5869H34.4134C33.8302 64.8668 32.0805 63.2182 28.831 63.2182C24.3318 63.2182 21.8322 66.5153 21.8322 72.2028C21.8322 77.8904 24.3318 81.2699 28.831 81.2699C32.4138 81.2699 34.5801 79.2916 34.5801 76.8188V76.3242H30.3308V71.6258H41.4123V85.9683H36.2465L35.8299 82.6712C34.83 84.8967 31.4972 86.3804 28.3311 86.3804C20.1658 86.3804 15 80.5281 15 72.2028C15 63.8776 20.4158 58.1077 28.831 58.1077Z" fill="#2F2F2F"/>
<path d="M59.8255 72.0382C59.1351 71.9423 58.4396 71.8873 57.7425 71.8733C54.8264 71.8733 52.5767 73.6043 52.5767 77.2312V85.8037H46.1611V66.2682H52.5767V70.3896C53.5766 67.5047 55.7429 65.9385 58.4924 65.9385C58.9708 65.9069 59.451 65.9628 59.9088 66.1034L59.8255 72.0382Z" fill="#2F2F2F"/>
<path fill-rule="evenodd" clip-rule="evenodd" d="M61.5762 76.1594C61.5762 82.5064 65.9088 86.3805 72.1577 86.3805C78.3234 86.3805 82.656 82.424 82.656 76.077C82.656 69.7301 78.4067 65.856 72.1577 65.856C65.9088 65.856 61.5762 69.8125 61.5762 76.1594ZM76.1577 75.9944C76.1577 79.5388 74.8246 81.6819 72.1584 81.6819C69.4921 81.6819 68.0757 79.6213 68.0757 76.0769C68.0757 72.5325 69.4921 70.3893 72.1584 70.3893C74.8246 70.3893 76.1577 72.45 76.1577 75.9944Z" fill="#2F2F2F"/>
<path d="M128.981 75.3349C128.981 75.2525 128.981 75.2525 128.897 75.2525C127.397 74.016 125.814 72.7796 124.231 71.4608C122.648 70.1419 121.148 68.8231 119.732 67.6691C119.639 67.4228 119.67 67.1472 119.815 66.9272L120.565 66.4327C121.266 66.1855 122.031 66.1855 122.732 66.4327C124.72 67.3596 126.57 68.5522 128.231 69.9771C129.933 71.4839 131.494 73.1391 132.897 74.9228C133.226 75.3762 133.318 75.9571 133.146 76.4889C132.958 77.0891 132.539 77.5923 131.98 77.8902C130.066 78.9741 128.229 80.1858 126.481 81.517C124.731 82.8358 122.898 84.0722 121.148 85.3087C120.982 85.3911 120.732 85.4735 120.565 85.5559L119.815 85.8032C119.565 85.8032 119.399 85.8032 119.315 85.7208C119.232 85.6384 119.232 85.3911 119.399 84.979C120.054 84.0218 120.778 83.1127 121.565 82.2588C122.315 81.4346 123.065 80.6927 123.898 79.8684C124.731 79.0441 125.481 78.3847 126.314 77.6429C127.147 76.901 128.064 76.1592 128.981 75.3349Z" fill="#FF4665"/>
<path d="M101.403 91.1613C101.581 90.5942 101.72 90.0159 101.82 89.4303L102.32 87.6993C103.153 85.3913 104.236 82.9185 105.402 80.3632C106.569 77.808 107.819 75.1703 109.152 72.615C110.485 70.0598 111.901 67.5869 113.401 65.1965C114.901 62.8061 116.317 60.663 117.734 58.7671C117.932 58.4999 118.155 58.2515 118.4 58.0253C118.643 57.7873 118.924 57.5922 119.233 57.4483C119.453 57.2932 119.714 57.2071 119.983 57.201C120.158 57.1978 120.32 57.2938 120.4 57.4483C120.483 57.6131 120.566 57.6956 120.566 57.8604V58.355C120.483 58.5199 120.483 58.6847 120.4 58.7671C120.317 58.8496 120.317 59.0144 120.233 59.1793C119.067 61.4048 117.817 63.8777 116.567 66.4329C115.317 68.9882 113.901 71.6259 112.484 74.346C111.068 77.0661 109.735 79.6214 108.319 82.1767C106.902 84.7319 105.569 87.0399 104.319 89.183C104.069 89.5952 103.736 90.0073 103.486 90.4194C103.228 90.8385 102.92 91.2259 102.569 91.5734C102.153 92.068 101.82 92.3153 101.57 92.1504C101.153 92.1504 101.153 91.8207 101.403 91.1613Z" fill="#FF4665"/>
<path d="M104.818 76.1594L102.402 66.2681H96.5697L93.4036 79.4565H93.3203L89.8209 66.2681H83.4053L89.5709 85.8035H96.0698L99.4026 73.1096H99.4859L101.986 82.6712L104.818 76.1594Z" fill="#2F2F2F"/>
</svg>
